<jittershader name="photo mosaic">
    <description>
        tiles incoming video and colors from second texture
    </description>

    <param name="tiles" type="vec2" default="3.0,3.0"/>
    <param name="tex0" type="int" default="0"/>
    <param name="tex1" type="int" default="1"/>

    